build/svg/cmd/lc_beziersymmetric.svg

<?xml version="1.0" encoding="UTF-8" standalone="no"?>
<svg
   xmlns:dc="http://purl.org/dc/elements/1.1/"
   xmlns:cc="http://creativecommons.org/ns#"
   xmlns:rdf="http://www.w3.org/1999/02/22-rdf-syntax-ns#"
   xmlns:svg="http://www.w3.org/2000/svg"
   xmlns="http://www.w3.org/2000/svg"
   xmlns:sodipodi="http://sodipodi.sourceforge.net/DTD/sodipodi-0.dtd"
   xmlns:inkscape="http://www.inkscape.org/namespaces/inkscape"
   viewBox="0 0 24 24"
   version="1.1"
   id="svg6"
   sodipodi:docname="lc_beziersymmetric.svg"
   inkscape:version="0.92.5 (2060ec1f9f, 2020-04-08)"
   inkscape:export-filename="/home/jupiter007/Libreoffice yaru theme fullcolor/build/cmd/lc_beziersymmetric.png"
   inkscape:export-xdpi="95"
   inkscape:export-ydpi="95">
  <metadata
     id="metadata12">
    <rdf:RDF>
      <cc:Work
         rdf:about="">
        <dc:format>image/svg+xml</dc:format>
        <dc:type
           rdf:resource="http://purl.org/dc/dcmitype/StillImage" />
      </cc:Work>
    </rdf:RDF>
  </metadata>
  <defs
     id="defs10" />
  <sodipodi:namedview
     pagecolor="#ffffff"
     bordercolor="#666666"
     borderopacity="1"
     objecttolerance="10"
     gridtolerance="10"
     guidetolerance="10"
     inkscape:pageopacity="0"
     inkscape:pageshadow="2"
     inkscape:window-width="1920"
     inkscape:window-height="1011"
     id="namedview8"
     showgrid="true"
     inkscape:zoom="19.666667"
     inkscape:cx="-0.017638798"
     inkscape:cy="11.583469"
     inkscape:window-x="1920"
     inkscape:window-y="32"
     inkscape:window-maximized="1"
     inkscape:current-layer="svg6">
    <inkscape:grid
       type="xygrid"
       id="grid832" />
  </sodipodi:namedview>
  <path
     d="M 11,5.6249999 C 7.0560301,6.5516999 3.5000001,12.8538 3.5000001,20.5 h 1 C 4.5000001,13.4498 7.6096511,7.6301499 11,6.6562499 Z m 2,0 v 1.03125 C 16.390349,7.6301499 19.5,13.4498 19.5,20.5 h 1 C 20.5,12.8538 16.94397,6.5516999 13,5.6249999 Z"
     id="path2"
     style="fill:#1463a5;fill-opacity:1;stroke:#1463a5;stroke-linecap:round;stroke-linejoin:miter;stroke-opacity:1"
     inkscape:connector-curvature="0"
     sodipodi:nodetypes="cccccccccc" />
  <path
     inkscape:connector-curvature="0"
     style="opacity:1;fill:#808080;fill-opacity:1;fill-rule:nonzero;stroke:none;stroke-width:2;stroke-linecap:round;stroke-linejoin:round;stroke-miterlimit:4;stroke-dasharray:none;stroke-opacity:1"
     d="M 2,4 C 1.446,4 1,4.446 1,5 V 7 C 1,7.554 1.446,8 2,8 H 4 C 4.5540001,8 5,7.554 5,7 h 5 V 5 H 5 C 5,4.446 4.5540001,4 4,4 Z"
     id="rect878"
     sodipodi:nodetypes="sssssccccss" />
  <path
     sodipodi:nodetypes="sssssccccss"
     id="path843"
     d="m 22,4 c 0.554,0 1,0.446 1,1 v 2 c 0,0.554 -0.446,1 -1,1 H 20 C 19.446,8 19,7.554 19,7 H 14 V 5 h 5 c 0,-0.554 0.446,-1 1,-1 z"
     style="opacity:1;fill:#808080;fill-opacity:1;fill-rule:nonzero;stroke:none;stroke-width:2;stroke-linecap:round;stroke-linejoin:round;stroke-miterlimit:4;stroke-dasharray:none;stroke-opacity:1"
     inkscape:connector-curvature="0" />
  <rect
     y="9"
     x="3"
     height="6"
     width="6"
     id="rect832"
     style="opacity:0.7;vector-effect:none;fill:#000000;fill-opacity:1;stroke:none;stroke-width:1.5;stroke-linecap:round;stroke-linejoin:round;stroke-miterlimit:4;stroke-dasharray:none;stroke-dashoffset:0;stroke-opacity:1"
     transform="matrix(0,1,1,0,0,0)" />
  <path
     style="opacity:1;fill:#ffffff;fill-opacity:1;fill-rule:nonzero;stroke:none;stroke-width:2;stroke-linecap:round;stroke-linejoin:round;stroke-miterlimit:4;stroke-dasharray:none;stroke-opacity:1"
     d="M 2,5.0429687 H 4 V 7 H 2 Z"
     id="rect858"
     inkscape:connector-curvature="0"
     sodipodi:nodetypes="ccccc" />
  <path
     sodipodi:nodetypes="ccccc"
     inkscape:connector-curvature="0"
     id="path845"
     d="M 22,5.0429687 H 20 V 7 h 2 z"
     style="opacity:1;fill:#ffffff;fill-opacity:1;fill-rule:nonzero;stroke:none;stroke-width:2;stroke-linecap:round;stroke-linejoin:round;stroke-miterlimit:4;stroke-dasharray:none;stroke-opacity:1" />
  <rect
     y="10"
     x="4"
     height="4"
     width="4"
     id="rect834"
     style="opacity:1;vector-effect:none;fill:#aee3f8;fill-opacity:1;stroke:none;stroke-width:2;stroke-linecap:round;stroke-linejoin:round;stroke-miterlimit:4;stroke-dasharray:none;stroke-dashoffset:0;stroke-opacity:1"
     transform="matrix(0,1,1,0,0,0)" />
</svg>

<svg xmlns="http://www.w3.org/2000/svg" viewBox="0 0 24 24"><path d="M11 5.625c-3.944.927-7.5 7.229-7.5 14.875h1c0-7.05 3.11-12.87 6.5-13.844zm2 0v1.031c3.39.974 6.5 6.794 6.5 13.844h1c0-7.646-3.556-13.948-7.5-14.875z" fill="#1463a5" stroke="#1463a5" stroke-linecap="round"/><path d="M2 4c-.554 0-1 .446-1 1v2c0 .554.446 1 1 1h2c.554 0 1-.446 1-1h5V5H5c0-.554-.446-1-1-1zM22 4c.554 0 1 .446 1 1v2c0 .554-.446 1-1 1h-2c-.554 0-1-.446-1-1h-5V5h5c0-.554.446-1 1-1z" fill="gray"/><path opacity=".7" d="M9 3v6h6V3z"/><path d="M2 5.043h2V7H2zM22 5.043h-2V7h2z" fill="#fff"/><path fill="#aee3f8" d="M10 4v4h4V4z"/></svg>
